X: 1
T: Det \"ar hemlandstoner f\"or en H\"alsingegrabb
C: music: Kai Gullmai
C: lyrics: Gus Morris
R: foxtrot
Z: 2019 John Chambers <jc:trillian.mit.edu>
D: https://archive.org/details/78_det-ar-hemlandstoner-for-en-halsingegrabb-tunes-from-home-for-a-helsinge-boy_wald_gbia0056157b
M: C|
L: 1/8
K: F
P: Verse
A  | "F"c>dc>A "Bb"d3_d | "F"c>dc>A F2zc | "Bb"d>dd>e f>fe>d |\
"C7"[c6E6] zA | "F"c>d>A "Bb"d3_d | "F"c>dc>A F3A |
"G7"G>A=B>c d>ef>d | "C7"[c6_B6E6] c>d | "F"[f2A2]c>A F2[f2A2] | "Bb"[e2B2][d2B2] [d3B3]d |\
"C7"c>dc>B G3d | "F"c>dc>A F2A>_A | "G7"G2f2 d2G2 | "C7"[c6_B6E6] |]
P: Refr\"ang
c>B |\
"F"A2c2 A2c2 FFGA | "Gm"B2dB G3F | "C7"E2[d2E2] [c2E2]cE | "F"F2[d2A2] [c2A2]c2 |\
"F"A2cc FFGA | "Gm"B2d2 G3F | "C7"E2dd c2E2 | "F"F6 c>B |
"F"A2c2 FFGA | "Gm"B2d2 G3F | "C7"E2[d2E2] [c2E2]E2 | "F"F2[d2A2] [c2A2] cc |\
"F"A2c2 FFGA | "Gm"B2d2 G4 | E2[d2E2] [c2E2]BE | "F"F4 zFGA |
"Bb"[B2D2]Bc d2=ed | "A7"[d2G2][^cG]>c [c3G3]c | "D7"[d^F]>AA>A c2BA | "G7"A2Ge "C7"[c2_B2E2]c>B |
"F"A2c2 FFGA | "Gm"B2dB G3F | "C7"E2[d2E2] [c2E2]cE | "F"F2[d2A2] [c2A2]c2 |\
"F"A2c FFGA | "Gm"B2d2 G3F | "C7"E2dd c2E2 | "F"F4 [f2c2A2F2]z2 |]
